!!!OTL: Vergiss mein nicht.
!!!OTL-incipit: ALLERSCHOENSTER ENGEL
!!!COM: Volksweise
!!!ARE: Europa, Mitteleuropa, Deutschland
!!!SCT: F0142A
!!!TXL: @@DE
!!!YEM: Copyright 1995, estate of Helmut Schaffrath.
**kern	**text
*ICvox	*
*clefG2	*
*M2/4	*
*k[]	*
*C:	*
=1	=1
!LO:TX:a:t=Fröhlich.	!
!LO:TX:a:t=P:only the highest voice encoded:problem	!
{4cc/	1._A-
4b/	-ler-
=2	=2
8cc/	-ſchönſter
8g	.
8e	En-
8c	-gel,
=3	=3
4cc/	al-
4b/	-lerſchönſtes
=4	=4
4.cc}	Kind!
{8g	komm
=5	=5
8a	ei-
8a	-le
8a	dich
8a	und
=6	=6
8g	küſ-
8g	-ſe
(8cc/	mich,
8ee/)	und
=7	=7
4ff/	1._ma-
8ee/	-che
8ee/	ge-
=8	=8
4dd/	-ſchwind!
8r}	.
{8f	All-
=9	=9
4g	-da-
8g	-rum
8b-/	ſo
=10	=10
8a	bitt'
8cc/	ich
4f}	dich,
=11	=11
{8a	komm,
8a	mein
8a	Schatʒ,
8cc/	und
=12	=12
8b	küſ-
8dd	-ſe
8g}	mich;
{8g	mein
=13	=13
4cc/	1._al-
8.ee/L	-ler-
16ddJ	.
=14	=14
8cc/	-liebſter
8b/	.
8cc/	Schatʒ,
8e/	ver-
=15	=15
4f	-giß
4g	mein
=16	=16
4e	nicht!
4r}	.
==	==
!!!AGN: Liebes - Lied
!!!ONB: ESAC (Essen Associative Code) Database: FINK
!!!AMT: simple duple
!!!AIN: vox
!!!EED: Helmut Schaffrath
!!!EEV: 1.0
!!!GTL: Volkslieder
!!Text: Volkslied
!!!source: Musikalischer Hausschatz der Deutschen. Eine Sammlung von über 1000 Liedern und Gesängen mit Singstimmen und Klavierbegleitung. Leipzig, Litterarisches Verlags-Haus.
!!!page: 83
!!!URL-scan: https://www.digitale-sammlungen.de/en/view/bsb11144622?page=90,91
!!!ENC: Anna Maria Matuszewska
!!!EEV: 2024/07/26
*-	*-